packages/foundations/assets/icons/functional/images/technology/wifi_disabled_16.svg

<svg width="16" height="16" viewBox="0 0 16 16" fill="none" xmlns="http://www.w3.org/2000/svg">
<g clip-path="url(#clip0_187_662)">
<path fill-rule="evenodd" clip-rule="evenodd" d="M9.1744 10.5983C9.66445 10.868 10 11.3877 10 12C10 12.875 9.3 13.6 8.4 13.6C7.80025 13.6 7.27098 13.2712 6.99733 12.7744L9.1744 10.5983ZM8.45 2.40002C9.70775 2.40002 10.9426 2.67573 12.07 3.19749L12.6343 2.63434C12.9467 2.32192 13.4533 2.32192 13.7657 2.63434C14.0541 2.92273 14.0763 3.37651 13.8322 3.69034L13.7657 3.76571L4.16569 13.3657C3.85327 13.6781 3.34673 13.6781 3.03431 13.3657C2.74593 13.0773 2.69759 12.616 3.03431 12.2343C4.50667 10.7616 5.61093 9.65705 6.34711 8.92069C6.36403 8.89894 6.34711 8.86446 6.325 8.86446C6.175 9.01479 5.975 9.08996 5.75 9.08996C5.275 9.08996 4.95 8.66401 4.95 8.28817C4.95 8.08772 5.025 7.86222 5.2 7.71188C6.125 6.83493 7.125 6.38392 8.45 6.38392C8.58957 6.38392 8.72817 6.3901 8.8655 6.40231L10.8585 4.41052C10.096 4.12687 9.28286 3.97856 8.45 3.97856C6.475 3.97856 4.7 4.70517 3.35 6.05819C3.2 6.20853 3 6.30875 2.8 6.30875C2.45 6.30875 2 6.03314 2 5.50696C2 5.28146 2.075 5.10606 2.225 4.93068C3.95 3.22688 5.925 2.40002 8.45 2.40002Z" fill="#1A1C1F"/>
</g>
<defs>
<clipPath id="clip0_187_662">
<rect width="16" height="16" fill="white"/>
</clipPath>
</defs>
</svg>

<svg xmlns="http://www.w3.org/2000/svg" width="16" height="16" fill="none"><g clip-path="url(#a)"><path fill="#1A1C1F" fill-rule="evenodd" d="M9.174 10.598c.49.27.826.79.826 1.402 0 .875-.7 1.6-1.6 1.6-.6 0-1.129-.329-1.403-.826zM8.45 2.4a8.6 8.6 0 0 1 3.62.797l.564-.563a.8.8 0 0 1 1.198 1.056l-.066.076-9.6 9.6a.8.8 0 0 1-1.132 0c-.288-.289-.336-.75 0-1.132l3.313-3.313c.017-.022 0-.057-.022-.057a.8.8 0 0 1-.575.226c-.475 0-.8-.426-.8-.802 0-.2.075-.426.25-.576.925-.877 1.925-1.328 3.25-1.328q.21 0 .416.018l1.992-1.991a6.9 6.9 0 0 0-2.408-.432c-1.975 0-3.75.726-5.1 2.08-.15.15-.35.25-.55.25-.35 0-.8-.276-.8-.802 0-.226.075-.4.225-.576C3.95 3.227 5.925 2.4 8.45 2.4" clip-rule="evenodd"/></g><defs><clipPath id="a"><path fill="#fff" d="M0 0h16v16H0z"/></clipPath></defs></svg>
